app/images/icons/instagram.svg

<svg xmlns="http://www.w3.org/2000/svg" preserveAspectRatio="xMidYMid" width="41" height="41"><circle cx="20.5" cy="20.5" r="20.5" fill="#f6f6f6"/><path d="M28.908 25.563c-.533 1.96-1.813 3.12-3.797 3.439-.742.119-2.745.191-4.744.191-2.047 0-4.091-.075-4.779-.254-1.95-.504-3.114-1.774-3.424-3.749-.231-1.451-.255-8.191.164-9.654.546-1.906 1.819-3.026 3.747-3.343.874-.143 2.583-.194 4.31-.194 1.605 0 3.224.044 4.199.098 1.18.062 2.261.442 3.139 1.284.836.801 1.264 1.802 1.372 2.935.128 1.353.211 7.748-.187 9.247zm-1.361-9.102c-.154-1.513-1.079-2.507-2.575-2.742-.741-.112-2.525-.162-4.3-.162-1.712 0-3.416.047-4.166.128-1.5.172-2.508 1.098-2.747 2.59-.247 1.58-.245 7.492-.06 8.68.191 1.236.889 2.085 2.122 2.43.668.188 2.666.254 4.626.254 1.803 0 3.575-.056 4.24-.129 1.514-.166 2.515-1.098 2.754-2.603.247-1.513.247-7.03.106-8.446zm-2.338.594a1.033 1.033 0 01.01-2.065h.012c.567 0 1.026.463 1.021 1.036a1.042 1.042 0 01-1.043 1.029zm-4.646 7.955a4.365 4.365 0 01-4.372-4.413 4.443 4.443 0 014.446-4.406 4.37 4.37 0 014.372 4.413 4.451 4.451 0 01-4.446 4.406zm.083-7.265h-.026a2.881 2.881 0 00-2.876 2.825 2.827 2.827 0 002.803 2.879h.026a2.88 2.88 0 002.876-2.824 2.824 2.824 0 00-2.803-2.88z" fill="#888" fill-rule="evenodd"/></svg>

<svg xmlns="http://www.w3.org/2000/svg" xmlns:xlink="http://www.w3.org/1999/xlink" preserveAspectRatio="xMidYMid" width="41" height="41" viewBox="0 0 41 41">
  <defs>
    <style>
      .cls-1 {
        fill: #f6f6f6;
      }

      .cls-2 {
        fill: #888;
        fill-rule: evenodd;
      }
    </style>
  </defs>
  <g>
    <circle cx="20.5" cy="20.5" r="20.5" class="cls-1"/>
    <path d="M28.908,25.563 C28.375,27.523 27.095,28.683 25.111,29.002 C24.369,29.121 22.366,29.193 20.367,29.193 C18.320,29.193 16.276,29.118 15.588,28.939 C13.638,28.435 12.474,27.165 12.164,25.190 C11.933,23.739 11.909,16.999 12.328,15.536 C12.874,13.630 14.147,12.510 16.075,12.193 C16.949,12.050 18.658,11.999 20.385,11.999 C21.990,11.999 23.609,12.043 24.584,12.097 C25.764,12.159 26.845,12.539 27.723,13.381 C28.559,14.182 28.987,15.183 29.095,16.316 C29.223,17.669 29.306,24.064 28.908,25.563 ZM27.547,16.461 C27.393,14.948 26.468,13.954 24.972,13.719 C24.231,13.607 22.447,13.557 20.672,13.557 C18.960,13.557 17.256,13.604 16.506,13.685 C15.006,13.857 13.998,14.783 13.759,16.275 C13.512,17.855 13.514,23.767 13.699,24.955 C13.890,26.191 14.588,27.040 15.821,27.385 C16.489,27.573 18.487,27.639 20.447,27.639 C22.250,27.639 24.022,27.583 24.687,27.510 C26.201,27.344 27.202,26.412 27.441,24.907 C27.688,23.394 27.688,17.877 27.547,16.461 ZM25.209,17.055 C24.636,17.048 24.184,16.585 24.188,16.019 C24.192,15.450 24.651,14.990 25.219,14.990 L25.231,14.990 C25.798,14.990 26.257,15.453 26.252,16.026 C26.248,16.592 25.782,17.055 25.209,17.055 ZM20.563,25.010 C18.125,25.010 16.172,23.035 16.191,20.597 C16.210,18.160 18.200,16.184 20.637,16.191 C23.068,16.191 25.028,18.167 25.009,20.604 C24.991,23.035 23.000,25.010 20.563,25.010 ZM20.646,17.745 L20.620,17.745 C19.057,17.745 17.771,19.004 17.744,20.570 C17.719,22.144 18.973,23.436 20.547,23.449 L20.573,23.449 C22.135,23.449 23.423,22.191 23.449,20.625 C23.474,19.043 22.220,17.759 20.646,17.745 Z" class="cls-2"/>
  </g>
</svg>
